public/avatar/body/86.svg

<svg xmlns:xlink="http://www.w3.org/1999/xlink" height="82" width="84.85" xmlns="http://www.w3.org/2000/svg"><g transform="translate(37.4 42.25)"><use height="38" transform="translate(-11.95 -17.45)" width="32.05" xlink:href="#a"/><use height="33.65" transform="translate(-10.1 -13.05)" width="30.55" xlink:href="#b"/><use height="38.95" transform="translate(-12.45 -17.95)" width="33.05" xlink:href="#c"/><use height="37.8" transform="translate(2.15 -17.45)" width="18" xlink:href="#d"/><use height="7.55" transform="translate(-4.3 -14.65)" width="6.6" xlink:href="#e"/></g><defs><use height="38" width="32.05" xlink:href="#f" id="a"/><use height="38.95" width="33.05" xlink:href="#g" id="c"/><use height="37.8" width="18" xlink:href="#h" id="d"/><use height="7.55" width="6.6" xlink:href="#i" id="e"/><path d="M27.35 7.4q2.15 4.15 3.55 8.75 1.45 4.7 1.15 9.5-.35 4.95-4.2 8.1-3.8 3.2-8.75 4.05l-2.6.2q-3.6 0-7.05-1.15-4.65-1.6-7.1-5.5Q-.2 27.4.05 23q.2-4.4 2-9.3Q3.85 8.75 7 5.05 10.1 1.3 14.7.1l1.8-.1q1.9.05 3.7.8 4.75 2.05 7.15 6.6" fill="#c90000" fill-rule="evenodd" transform="translate(-.05)" id="f"/><path d="M27.35 7.4Q24.95 2.85 20.2.8 17.55-.3 14.7.1 10.1 1.3 7 5.05q-3.15 3.7-4.95 8.65-1.8 4.9-2 9.3-.25 4.4 2.3 8.35 2.45 3.9 7.1 5.5 4.65 1.55 9.65.95 4.95-.85 8.75-4.05 3.85-3.15 4.2-8.1.3-4.8-1.15-9.5-1.4-4.6-3.55-8.75Z" fill="none" stroke="#333" stroke-linecap="round" stroke-linejoin="round" transform="translate(.45 .5)" id="g"/><path d="m11.7 5.95 1.45 2 2.35 4.5 1.85 5.95.45 2.3.2 2.8q-.45 3.1-1.5 6.15l-1.5 2.5-.75.9-1.65 1.5-.4.3-2.55 1.45-4.75 1.25-2.9.25 2.7-1.2q1.5-.7 2.6-1.95 3.45-4.05 4.85-8.4l-.05-1.8Q11.8 15.4 6.9 7.5 5 4.4 2.6 1.7L0 .2 1.1 0l2.1.1 1.15.35 2.1.9 1.95 1.2.9.75 2.4 2.65" fill="#706452" fill-opacity=".302" fill-rule="evenodd" id="h"/><g id="b" fill-rule="evenodd"><path d="M18.45-3.2q-10.85 3-13 7.5l-7.5 15.25q-1.35-.8-2.6-1.5-2.45-1.3-1.75-.6-1.1-.65-2.2-2.35-2.15-3.45-1.25-8Q-8.4 0-2.9-6.3q3.55-4.15 7.75-5.8 3.55-1.4 6.25-.7 2.05.5 3.6 2.25l1.5 2.1q1 1.15 2.25 5.25" fill="#ff6a00" transform="translate(10.1 13.05)"/><path d="M18.25 13.6q-5.5 6.2-14.55 6.85-6.85.5-8.15-4.5-1.4-5.45 5.8-14Q9.8-8.05 15.05-6q3.5 1.35 4.9 8.45 1.5 7.55-1.7 11.15" fill="#ffa600" transform="translate(10.1 13.05)"/><path d="M17.95 13.7q-3.95 3.95-8.2 5.8-3.95 1.7-6.15.75-2.3-1-1.25-4.55 1.2-4.05 6.6-10.25 3.8-4.4 6.85-5 2.55-.55 3.95 1.75 1.6 2.75-1.8 11.5" fill="#fbff00" transform="translate(10.1 13.05)"/><path d="M17 14.85q-4.65 4.6-6.6 3.8-2.05-.85 3.25-7.9 5.4-7.15 6.6-3.8.45 1.3-.4 3.5-.9 2.45-2.85 4.4" fill="#00c73e" transform="translate(10.1 13.05)"/></g><g id="i" fill="#fff" fill-rule="evenodd"><path d="M1.1 3q-.05.45.3.8 1.1 1.25 2.6.25 2.55-1.7.8-3.8Q4.6 0 4.3 0 1.2.25 1.1 3"/><path d="M.95 7.1q1 .7 2.35.3 1.35-.45 2.35-1.75.95-1.3.95-2.7Q6.65 1.5 5.7.8 4.75.05 3.4.5 2.05.9 1 2.25q-.95 1.3-1 2.7 0 1.4.95 2.15" fill-opacity=".502"/></g></defs></svg>

<?xml version="1.0" encoding="UTF-8" standalone="no"?>
<svg xmlns:xlink="http://www.w3.org/1999/xlink" height="82.0px" width="84.85px" xmlns="http://www.w3.org/2000/svg">
  <g transform="matrix(1.0, 0.0, 0.0, 1.0, 37.4, 42.25)">
    <use height="38.0" transform="matrix(1.0, 0.0, 0.0, 1.0, -11.95, -17.45)" width="32.05" xlink:href="#sprite0"/>
    <use height="33.65" transform="matrix(1.0, 0.0, 0.0, 1.0, -10.1, -13.05)" width="30.55" xlink:href="#shape1"/>
    <use height="38.95" transform="matrix(1.0, 0.0, 0.0, 1.0, -12.45, -17.95)" width="33.05" xlink:href="#sprite1"/>
    <use height="37.8" transform="matrix(1.0, 0.0, 0.0, 1.0, 2.15, -17.45)" width="18.0" xlink:href="#sprite2"/>
    <use height="7.55" transform="matrix(1.0, 0.0, 0.0, 1.0, -4.3, -14.65)" width="6.6" xlink:href="#sprite3"/>
  </g>
  <defs>
    <g id="sprite0" transform="matrix(1.0, 0.0, 0.0, 1.0, -0.05, 0.0)">
      <use height="38.0" transform="matrix(1.0, 0.0, 0.0, 1.0, 0.05, 0.0)" width="32.05" xlink:href="#shape0"/>
    </g>
    <g id="shape0" transform="matrix(1.0, 0.0, 0.0, 1.0, -0.05, 0.0)">
      <path d="M27.35 7.4 Q29.5 11.55 30.9 16.15 32.35 20.85 32.05 25.65 31.7 30.6 27.85 33.75 24.05 36.95 19.1 37.8 L16.5 38.0 Q12.9 38.0 9.45 36.85 4.8 35.25 2.35 31.35 -0.2 27.4 0.05 23.0 0.25 18.6 2.05 13.7 3.85 8.75 7.0 5.05 10.1 1.3 14.7 0.1 L16.5 0.0 Q18.4 0.05 20.2 0.8 24.95 2.85 27.35 7.4" fill="#c90000" fill-rule="evenodd" stroke="none"/>
    </g>
    <g id="shape1" transform="matrix(1.0, 0.0, 0.0, 1.0, 10.1, 13.05)">
      <path d="M18.45 -3.2 Q7.6 -0.2 5.45 4.3 L-2.05 19.55 Q-3.4 18.75 -4.65 18.05 -7.1 16.75 -6.4 17.45 -7.5 16.8 -8.6 15.1 -10.75 11.65 -9.85 7.1 -8.4 0.0 -2.9 -6.3 0.65 -10.45 4.85 -12.1 8.4 -13.5 11.1 -12.8 13.15 -12.3 14.7 -10.55 L16.2 -8.45 Q17.2 -7.3 18.45 -3.2" fill="#ff6a00" fill-rule="evenodd" stroke="none"/>
      <path d="M18.25 13.6 Q12.75 19.8 3.7 20.45 -3.15 20.95 -4.45 15.95 -5.85 10.5 1.35 1.95 9.8 -8.05 15.05 -6.0 18.55 -4.65 19.95 2.45 21.45 10.0 18.25 13.6" fill="#ffa600" fill-rule="evenodd" stroke="none"/>
      <path d="M17.95 13.7 Q14.0 17.65 9.75 19.5 5.8 21.2 3.6 20.25 1.3 19.25 2.35 15.7 3.55 11.65 8.95 5.45 12.75 1.05 15.8 0.45 18.35 -0.1 19.75 2.2 21.35 4.95 17.95 13.7" fill="#fbff00" fill-rule="evenodd" stroke="none"/>
      <path d="M17.0 14.85 Q12.35 19.45 10.4 18.65 8.35 17.8 13.65 10.75 19.05 3.6 20.25 6.95 20.7 8.25 19.85 10.45 18.95 12.9 17.0 14.85" fill="#00c73e" fill-rule="evenodd" stroke="none"/>
    </g>
    <g id="sprite1" transform="matrix(1.0, 0.0, 0.0, 1.0, 0.45, 0.5)">
      <use height="38.95" transform="matrix(1.0, 0.0, 0.0, 1.0, -0.45, -0.5)" width="33.05" xlink:href="#shape2"/>
    </g>
    <g id="shape2" transform="matrix(1.0, 0.0, 0.0, 1.0, 0.45, 0.5)">
      <path d="M27.35 7.4 Q24.95 2.85 20.2 0.8 17.55 -0.3 14.7 0.1 10.1 1.3 7.0 5.05 3.85 8.75 2.05 13.7 0.25 18.6 0.05 23.0 -0.2 27.4 2.35 31.35 4.8 35.25 9.45 36.85 14.1 38.4 19.1 37.8 24.05 36.95 27.85 33.75 31.7 30.6 32.05 25.65 32.35 20.85 30.9 16.15 29.5 11.55 27.35 7.4 Z" fill="none" stroke="#333333" stroke-linecap="round" stroke-linejoin="round" stroke-width="1.0"/>
    </g>
    <g id="sprite2" transform="matrix(1.0, 0.0, 0.0, 1.0, 0.0, 0.0)">
      <use height="37.8" transform="matrix(1.0, 0.0, 0.0, 1.0, 0.0, 0.0)" width="18.0" xlink:href="#shape3"/>
    </g>
    <g id="shape3" transform="matrix(1.0, 0.0, 0.0, 1.0, 0.0, 0.0)">
      <path d="M11.7 5.95 L13.15 7.95 15.5 12.45 17.35 18.4 17.8 20.7 18.0 23.5 Q17.55 26.6 16.5 29.65 L15.0 32.15 14.25 33.05 12.6 34.55 12.2 34.85 9.65 36.3 4.9 37.55 2.0 37.8 4.7 36.6 Q6.2 35.9 7.3 34.65 10.75 30.6 12.15 26.25 L12.1 24.45 Q11.8 15.4 6.9 7.5 5.0 4.4 2.6 1.7 L0.0 0.2 1.1 0.0 3.2 0.1 4.35 0.45 6.45 1.35 8.4 2.55 9.3 3.3 11.7 5.95" fill="#706452" fill-opacity="0.3019608" fill-rule="evenodd" stroke="none"/>
    </g>
    <g id="sprite3" transform="matrix(1.0, 0.0, 0.0, 1.0, 0.0, 0.0)">
      <use height="7.55" transform="matrix(1.0, 0.0, 0.0, 1.0, 0.0, 0.0)" width="6.6" xlink:href="#shape4"/>
    </g>
    <g id="shape4" transform="matrix(1.0, 0.0, 0.0, 1.0, 0.0, 0.0)">
      <path d="M1.1 3.0 Q1.05 3.45 1.4 3.8 2.5 5.05 4.0 4.05 6.55 2.35 4.8 0.25 4.6 0.0 4.3 0.0 1.2 0.25 1.1 3.0" fill="#ffffff" fill-rule="evenodd" stroke="none"/>
      <path d="M0.95 7.1 Q1.95 7.8 3.3 7.4 4.65 6.95 5.65 5.65 6.6 4.35 6.6 2.95 6.65 1.5 5.7 0.8 4.75 0.05 3.4 0.5 2.05 0.9 1.0 2.25 0.05 3.55 0.0 4.95 0.0 6.35 0.95 7.1" fill="#ffffff" fill-opacity="0.5019608" fill-rule="evenodd" stroke="none"/>
    </g>
  </defs>
</svg>
